dist/images/icons/html.svg

<svg width="38" height="45" viewBox="0 0 38 45" fill="none" xmlns="http://www.w3.org/2000/svg">
<path d="M0 0.375L3.32031 39.0469L18.6523 44.125L34.082 39.0469L37.5 0.375H0ZM30.0781 12.875H12.1094L12.5 17.7578H29.6875L28.3203 32.2109L18.75 34.8477H18.6523L8.98438 32.2109L8.39844 24.7891H13.0859L13.4766 28.5L18.6523 29.9648L23.9258 28.5L24.5117 22.4453H8.20312L6.93359 8.28516H30.4688L30.0781 12.875Z" fill="#fff"/>
</svg>

<svg width="38" height="45" fill="none" xmlns="http://www.w3.org/2000/svg"><path d="M0 .375l3.32 38.672 15.332 5.078 15.43-5.078L37.5.375H0zm30.078 12.5H12.11l.391 4.883h17.188L28.32 32.21l-9.57 2.637h-.098L8.984 32.21l-.586-7.422h4.688l.39 3.711 5.176 1.465 5.274-1.465.586-6.055H8.203l-1.27-14.16H30.47l-.39 4.59z" fill="#fff"/></svg>
